src/assets/icons/burguer_menu.svg

<svg width="27" height="19" viewBox="0 0 27 19" fill="none" xmlns="http://www.w3.org/2000/svg">
<g clip-path="url(#clip0_762_608)">
<path d="M1.25508 0.0990901C0.922852 0.20465 0.511523 0.484383 0.3375 0.721892C0.0421875 1.11774 0 1.27608 0 1.95166C0 2.52168 0.0158203 2.61669 0.126563 2.83836C0.305859 3.19726 0.653906 3.5245 1.05469 3.71451L1.39746 3.87812L13.3945 3.89396C26.7047 3.90451 25.6764 3.93618 26.2354 3.56144C26.5254 3.36088 26.7152 3.14448 26.8893 2.81197C26.9842 2.62196 27 2.50057 27 1.95166C27 1.40275 26.9842 1.28136 26.8893 1.09135C26.71 0.743004 26.5412 0.552996 26.2459 0.352433C25.6869 -0.0275812 26.71 -0.00119138 13.4789 0.00408649C2.09355 0.00408649 1.53984 0.0093646 1.25508 0.0990901Z" fill="black"/>
<path d="M1.23926 7.65716C0.822656 7.78911 0.469336 8.05829 0.226758 8.42774L0.0263672 8.72331V9.49917V10.275L0.226758 10.5706C0.474609 10.9453 0.822656 11.2092 1.26035 11.3465C1.5873 11.452 1.72969 11.452 13.5 11.452C25.2703 11.452 25.4127 11.452 25.7396 11.3465C26.1773 11.2092 26.5254 10.9453 26.7732 10.5706L26.9736 10.275V9.49917V8.72331L26.7732 8.42774C26.5254 8.05301 26.1773 7.78911 25.7396 7.65188C25.4127 7.54632 25.2756 7.54632 13.4789 7.5516C1.81406 7.5516 1.55039 7.55688 1.23926 7.65716Z" fill="black"/>
<path d="M1.23926 15.2047C0.738281 15.3789 0.358594 15.7061 0.126563 16.16C0.0158203 16.3817 0 16.4767 0 17.0467C0 17.5956 0.0158203 17.717 0.110742 17.907C0.369141 18.4137 0.711914 18.7093 1.2498 18.8887L1.57676 18.9995H13.4895C26.71 18.9995 25.6869 19.0259 26.2459 18.6459C26.5412 18.4454 26.71 18.2554 26.8893 17.907C26.9842 17.717 27 17.5956 27 17.0467C27 16.4978 26.9842 16.3764 26.8893 16.1864C26.7152 15.8539 26.5254 15.6375 26.2354 15.4422C25.6764 15.0675 26.7047 15.0938 13.4789 15.0938C1.59258 15.0991 1.55566 15.0991 1.23926 15.2047Z" fill="black"/>
</g>
<defs>
<clipPath id="clip0_762_608">
<rect width="27" height="19" fill="white"/>
</clipPath>
</defs>
</svg>

<svg xmlns="http://www.w3.org/2000/svg" width="27" height="19" fill="none"><g fill="#000" clip-path="url(#a)"><path d="M1.255.1C.923.204.512.483.338.721.042 1.118 0 1.276 0 1.952c0 .57.016.665.127.886.179.36.527.687.928.877l.342.163 11.998.016c13.31.01 12.281.042 12.84-.333.29-.2.48-.417.654-.749.095-.19.111-.311.111-.86 0-.55-.016-.67-.11-.86-.18-.349-.349-.539-.644-.74-.56-.38.464-.353-12.767-.348C2.094.004 1.539.01 1.255.1ZM1.24 7.657c-.417.132-.77.401-1.013.77l-.2.296v1.552l.2.296a1.89 1.89 0 0 0 1.033.776c.327.105.47.105 12.24.105s11.913 0 12.24-.105a1.89 1.89 0 0 0 1.033-.776l.2-.296V8.723l-.2-.295a1.889 1.889 0 0 0-1.033-.776c-.327-.106-.464-.106-12.261-.1-11.665 0-11.929.005-12.24.105ZM1.24 15.205c-.502.174-.881.501-1.113.955-.111.222-.127.317-.127.887 0 .549.016.67.11.86.26.507.602.802 1.14.982l.327.11h11.912c13.221 0 12.198.027 12.757-.353.295-.2.464-.39.643-.739.095-.19.111-.311.111-.86 0-.55-.016-.67-.11-.86a1.874 1.874 0 0 0-.655-.745c-.559-.374.47-.348-12.756-.348-11.886.005-11.923.005-12.24.11Z"/></g><defs><clipPath id="a"><path fill="#fff" d="M0 0h27v19H0z"/></clipPath></defs></svg>
